X:84
T:Polska efter fadern
T:(SvL Småland 84)
O:Skede, Småland
R:Polska
S:Carl Henrik Adolphsson
B:Svenska Låtar Småland
M:3/4
L:1/8
K:G
{/c}Bc/B/ AB/A/ GB|dB/d/ gd BG|{/c}Bc/B/ AB/A/ GB|dB/d/ dg g2:|
|:d Lg2 g (dB)|c Le2 e cA|Ad/e/ dB GB|(A/c/).A/.F/ GD (C/B,/).A,/.G,/|
G, Lg2 g (dB)|C Le2 e cA|A Ld2 B GB|(A/c/).A/.F/ G2 G,2:|

